map-marker-plus-outline.svg

<svg fill="currentColor" viewBox="0 0 24 24"><path d="M15 17h3v-3h2v3h3v2h-3v3h-2v-3h-3zM9 6.5c1.4 0 2.5 1.1 2.5 2.5s-1.1 2.5-2.5 2.5S6.5 10.4 6.5 9 7.6 6.5 9 6.5M9 2c3.9 0 7 3.1 7 7 0 5.2-7 13-7 13S2 14.2 2 9c0-3.9 3.1-7 7-7m0 2C6.2 4 4 6.2 4 9c0 1 0 3 5 9.7C14 12 14 10 14 9c0-2.8-2.2-5-5-5"/></svg>

<svg  viewBox="0 0 24 24" fill="currentColor"><path  d="M15 17H18V14H20V17H23V19H20V22H18V19H15V17M9 6.5C10.4 6.5 11.5 7.6 11.5 9S10.4 11.5 9 11.5 6.5 10.4 6.5 9 7.6 6.5 9 6.5M9 2C12.9 2 16 5.1 16 9C16 14.2 9 22 9 22S2 14.2 2 9C2 5.1 5.1 2 9 2M9 4C6.2 4 4 6.2 4 9C4 10 4 12 9 18.7C14 12 14 10 14 9C14 6.2 11.8 4 9 4Z"/></svg>
